assets/img/payment_methods/ic-ok-pay.svg

<?xml version="1.0" encoding="UTF-8"?>
<svg viewBox="0 0 96 96" version="1.1" xmlns="http://www.w3.org/2000/svg" xmlns:xlink="http://www.w3.org/1999/xlink">
    <!-- Generator: Sketch 46.2 (44496) - http://www.bohemiancoding.com/sketch -->
    <title>Artboard</title>
    <desc>Created with Sketch.</desc>
    <defs>
        <polygon id="path-1" points="0.0347390543 0.0777810219 72.6581296 0.0777810219 72.6581296 17.9921168 0.0347390543 17.9921168"></polygon>
    </defs>
    <g id="Page-1" stroke="none" stroke-width="1" fill="none" fill-rule="evenodd">
        <g id="Artboard">
            <g id="ic-ok-pay">
                <g id="96" fill="#D8D8D8" opacity="0">
                    <rect id="Rectangle-4" x="0" y="0" width="96" height="96"></rect>
                </g>
                <g id="okpay_logo" transform="translate(10.000000, 39.000000)">
                    <g id="Group-7" transform="translate(3.327496, 0.000000)">
                        <mask id="mask-2" fill="white">
                            <use xlink:href="#path-1"></use>
                        </mask>
                        <g id="Clip-2"></g>
                        <path d="M71.7660946,1.40531387 L70.6063958,1.40531387 C69.8643643,1.40531387 69.3134641,1.89026277 68.8864799,2.4820292 L67.7392925,4.0740438 C67.738627,4.07470073 67.738627,4.07535766 67.7379615,4.0760146 L65.2531208,7.5220292 L63.0985009,4.53639416 C63.0886515,4.52141606 63.0834606,4.50775182 63.0722802,4.49224818 L61.6209597,2.4859708 C61.1929107,1.89472993 60.6365534,1.41056934 59.894655,1.41056934 L58.8196077,1.41056934 C58.0775762,1.41056934 57.5968196,1.89407299 58.0263327,2.484 L59.4861716,4.49408759 C59.489366,4.4980292 59.493359,4.5019708 59.4966865,4.50643796 L63.652063,10.2186131 L63.652063,16.6854745 C63.652063,17.4095474 64.2595306,18.0006569 65.0016953,18 L65.5045464,17.9986861 C66.246711,17.9981606 66.8541786,17.404292 66.8541786,16.680219 L66.8541786,10.2121752 L71.2808126,4.12856934 C71.2945219,4.11109489 71.3123573,4.09414599 71.3254011,4.0760146 L72.4825709,2.48005839 C72.911951,1.88894891 72.5081261,1.40531387 71.7660946,1.40531387" id="Fill-1" fill="#BF512D" mask="url(#mask-2)"></path>
                        <path d="M23.3276077,9.18091971 L27.4972259,5.27268613 C27.5165254,5.25586861 30.4447215,2.51132847 30.4447215,2.51132847 C30.9716637,2.01665693 30.4046585,1.40531387 29.6825919,1.40531387 L28.0971068,1.40531387 C27.3753065,1.40531387 27.010613,1.8110365 26.4846025,2.30767883 L23.3981506,5.22091971 C23.3954886,5.22341606 23.3938914,5.2260438 23.3909632,5.22932847 L21.4048476,7.1039562 L21.4048476,4.97837956 L21.3963292,4.97837956 C21.3983257,4.94986861 21.4048476,4.9220146 21.4048476,4.89350365 L21.4048476,2.72259854 C21.4048476,1.99852555 20.8144168,1.40531387 20.0924834,1.40531387 L19.5029842,1.40531387 C18.781317,1.40531387 18.19062,1.99852555 18.19062,2.72259854 L18.19062,4.89350365 C18.19062,4.9220146 18.197275,4.94986861 18.1991384,4.97837956 L18.19062,4.97837956 L18.19062,16.6828467 C18.19062,17.4069197 18.781317,18 19.5029842,18 L20.0924834,18 C20.8144168,18 21.4048476,17.4069197 21.4048476,16.6828467 L21.4048476,11.4418248 L24.2344168,14.2766277 L24.2377443,14.2766277 L27.0229912,17.0699124 C27.5339615,17.5812701 27.8858774,18 28.607944,18 L30.1954256,18 C30.9172259,18 31.2248196,17.1430949 30.7138494,16.6316058 L23.3276077,9.18091971" id="Fill-3" fill="#D2642C" mask="url(#mask-2)"></path>
                        <path d="M54.7185359,10.8052555 L51.6118529,10.8052555 C51.2387741,10.8052555 51.0491068,10.5310511 51.1889947,10.1953577 L52.9047846,6.10042336 C53.0454711,5.76472993 53.2758669,5.76472993 53.4170858,6.09976642 L55.1408616,10.1960146 C55.2820806,10.5310511 55.0916147,10.8052555 54.7185359,10.8052555 Z M60.9590543,16.3574015 L60.9670403,16.3574015 L55.550676,3.24433577 L55.548014,3.24433577 L55.2939264,2.62852555 C55.0168126,1.95569343 54.1794816,1.40531387 53.4334571,1.40531387 L52.8950683,1.40531387 C52.1490438,1.40531387 51.3123783,1.95635036 51.0372609,2.62983942 L50.7863678,3.24433577 L50.7771839,3.24433577 L45.381317,16.2880292 L45.3831804,16.2880292 L45.1796708,16.7781022 C44.9005604,17.4504088 45.284021,18 46.0300455,18 L47.2376602,18 C47.9836848,18 48.3344028,17.4444964 48.5936813,16.7650949 L48.7756287,16.2880292 L48.7829492,16.2880292 L49.8735692,13.4637372 L56.469331,13.4637372 L56.558641,13.6905109 L56.6249247,13.8254453 L57.5974851,16.3574015 L57.6008126,16.3574015 L57.7570718,16.7650949 C58.0171489,17.4444964 58.4728827,18 59.2195727,18 L60.2872995,18 C61.0339895,18 61.4154536,17.4509343 61.1350123,16.7794161 L60.9590543,16.3574015 L60.9590543,16.3574015 Z" id="Fill-4" fill="#BF512D" mask="url(#mask-2)"></path>
                        <path d="M44.1710403,7.63029197 C44.0461926,7.93760584 43.8643783,8.19367883 43.6206725,8.40416058 L43.6233345,8.40166423 L43.621338,8.40416058 C43.1327285,8.82367883 42.4052049,9.05255474 41.425324,9.05255474 L39.6556287,9.05255474 C39.2766935,9.05255474 38.9668371,8.75627737 38.9668371,8.39391241 L38.9668371,4.70023358 C38.9668371,4.33852555 39.2766935,4.04172263 39.6556287,4.04172263 L41.425324,4.04172263 C42.4052049,4.04172263 43.1327285,4.27046715 43.6206725,4.69116788 C43.8649107,4.90125547 44.0461926,5.15535766 44.1710403,5.46319708 C44.2944238,5.77051095 44.358711,6.12906569 44.358711,6.54188321 C44.358711,6.95877372 44.2944238,7.32048175 44.1710403,7.63029197 Z M47.3663678,8.75824818 C47.6421506,8.11129927 47.7781786,7.37040876 47.7781786,6.54188321 C47.7781786,5.71992701 47.6421506,4.98350365 47.3663678,4.34049635 C47.0919159,3.69748905 46.6769107,3.14776642 46.1272084,2.7069635 C45.0359229,1.83258394 43.4465779,1.40531387 41.425324,1.40531387 L37.0512644,1.40531387 C36.2941926,1.40531387 35.6740806,1.99852555 35.6740806,2.72259854 L35.6740806,16.6828467 C35.6740806,17.4069197 36.2941926,18 37.0512644,18 L37.5896532,18 C38.3468581,18 38.9668371,17.4069197 38.9668371,16.6828467 L38.9668371,11.6888321 L41.425324,11.6888321 C43.4465779,11.6888321 45.0359229,11.2649781 46.1265429,10.392438 C46.6749142,9.95413139 47.0919159,9.40388321 47.3663678,8.75824818 L47.3663678,8.75824818 Z" id="Fill-5" fill="#BF512D" mask="url(#mask-2)"></path>
                        <path d="M12.0776112,13.6595036 C11.6258704,14.2105401 11.1090438,14.6129781 10.5120911,14.8800876 C9.91513835,15.1471971 9.23326795,15.2826569 8.45237128,15.2826569 C7.66961121,15.2826569 6.98734151,15.1471971 6.38812609,14.8800876 C5.78664799,14.6129781 5.26755867,14.2065985 4.81169177,13.6549051 C4.27689667,13.0118978 3.89929247,12.2067591 3.67115937,11.2570949 L3.46059545,9.87451095 C3.45407356,9.79147445 3.44954816,9.61646715 3.44715236,9.42845255 C3.44289317,9.23137226 3.44063047,9.01235036 3.44063047,8.83340146 C3.44063047,8.67981022 3.44289317,8.55328467 3.44515587,8.50086131 L3.60833625,7.11814599 C3.82076357,6.0369635 4.22299124,5.13131387 4.81169177,4.41827737 L4.80916287,4.42274453 L4.81169177,4.42274453 C5.26755867,3.86658394 5.78664799,3.46414599 6.38812609,3.19769343 C6.98734151,2.93058394 7.66961121,2.79512409 8.45237128,2.79512409 C9.23326795,2.79512409 9.91513835,2.93058394 10.5120911,3.19769343 C11.1090438,3.46414599 11.6258704,3.86658394 12.0776112,4.41827737 C12.9812259,5.5210073 13.4504028,7.06953285 13.4504028,9.04348905 C13.4504028,11.0120584 12.9812259,12.5569051 12.0776112,13.6595036 Z M14.5668441,2.5410219 C13.0412539,0.904861314 10.9658284,0.0731824818 8.45237128,0.0777810219 C5.9274676,0.0731824818 3.84778284,0.904861314 2.31992995,2.5410219 C1.19510333,3.74018978 0.484217163,5.25849635 0.190998249,7.05205839 L0.190998249,7.05665693 L0.054704028,8.46972263 L0.054704028,8.47878832 C0.0455201401,8.65839416 0.0347390543,8.84181022 0.0347390543,9.04348905 C0.0347390543,9.34094891 0.0481821366,9.62947445 0.0658844133,9.90945985 L0.0658844133,9.91852555 L0.251425569,11.3317226 L0.251425569,11.3361898 C0.573527145,12.9944234 1.25739405,14.4120876 2.31992995,15.5452993 C3.84778284,17.1729197 5.9274676,18.0045985 8.45237128,18 C10.9658284,18.0045985 13.0412539,17.1729197 14.5668441,15.5367591 C16.082718,13.9129489 16.8457793,11.7166861 16.8457793,9.04348905 C16.8457793,6.36556204 16.08538,4.16417518 14.5668441,2.5410219 L14.5668441,2.5410219 Z" id="Fill-6" fill="#D2642C" mask="url(#mask-2)"></path>
                    </g>
                    <polyline id="Fill-8" fill="#D2642C" points="11.7355447 8.04310949 0.672420315 8.04310949 1.71326095 6.05194161 12.7763853 6.05194161 11.7355447 8.04310949"></polyline>
                    <polyline id="Fill-9" fill="#D2642C" points="9.66278109 12.0259708 0 12.0259708 1.09634326 10.0345401 10.7591243 10.0345401 9.66278109 12.0259708"></polyline>
                </g>
            </g>
        </g>
    </g>
</svg>

<svg viewBox="0 0 96 96" xmlns="http://www.w3.org/2000/svg" xmlns:xlink="http://www.w3.org/1999/xlink"><title>Artboard</title><defs><path id="a" d="M.035.078h72.623v17.914H.035z"/></defs><g fill="none" fill-rule="evenodd"><g transform="translate(13.327 39)"><mask id="b" fill="#fff"><use xlink:href="#a"/></mask><path d="M71.766 1.405h-1.16c-.742 0-1.293.485-1.72 1.077L67.74 4.074l-.001.002-2.485 3.446L63.1 4.536c-.01-.015-.016-.028-.027-.044l-1.451-2.006c-.428-.591-.984-1.075-1.726-1.075H58.82c-.742 0-1.223.483-.794 1.073l1.46 2.01.01.012 4.156 5.713v6.466c0 .725.608 1.316 1.35 1.315l.503-.001c.742 0 1.35-.595 1.35-1.319v-6.468L71.28 4.13c.014-.018.031-.035.044-.053l1.158-1.596c.429-.591.025-1.075-.717-1.075" fill="#BF512D" mask="url(#b)"/><path d="M23.328 9.18l4.17-3.907 2.947-2.762c.527-.494-.04-1.106-.762-1.106h-1.586c-.722 0-1.086.406-1.612.903L23.398 5.22l-.007.008-1.986 1.875V4.978h-.009c.002-.028.009-.056.009-.084V2.723c0-.724-.59-1.318-1.313-1.318h-.589a1.32 1.32 0 0 0-1.312 1.318v2.17c0 .029.006.057.008.085h-.008v11.705c0 .724.59 1.317 1.312 1.317h.59c.721 0 1.312-.593 1.312-1.317v-5.241l2.83 2.835h.003l2.785 2.793c.511.511.863.93 1.585.93h1.587c.722 0 1.03-.857.519-1.368L23.328 9.18" fill="#D2642C" mask="url(#b)"/><path d="M54.719 10.805h-3.107c-.373 0-.563-.274-.423-.61L52.905 6.1c.14-.335.37-.335.512 0l1.724 4.096c.141.335-.05.61-.422.61zm6.24 5.552h.008L55.551 3.244h-.003l-.254-.615c-.277-.673-1.115-1.224-1.86-1.224h-.539c-.746 0-1.583.551-1.858 1.225l-.25.614h-.01l-5.396 13.044h.002l-.203.49c-.28.672.104 1.222.85 1.222h1.208c.746 0 1.096-.556 1.356-1.235l.182-.477h.007l1.09-2.824h6.596l.09.227.066.134.972 2.532h.004l.156.408c.26.68.716 1.235 1.463 1.235h1.067c.747 0 1.128-.55.848-1.22l-.176-.423zM44.171 7.63a1.993 1.993 0 0 1-.55.774l.002-.002-.002.002c-.488.42-1.216.649-2.196.649h-1.77c-.378 0-.688-.297-.688-.66V4.7c0-.361.31-.658.689-.658h1.77c.98 0 1.707.228 2.195.65.244.21.425.463.55.771.123.308.188.666.188 1.079 0 .417-.065.778-.188 1.088zm3.195 1.128c.276-.647.412-1.388.412-2.216 0-.822-.136-1.558-.412-2.202a4.167 4.167 0 0 0-1.239-1.633c-1.091-.874-2.68-1.302-4.702-1.302h-4.374c-.757 0-1.377.594-1.377 1.318v13.96c0 .724.62 1.317 1.377 1.317h.539c.757 0 1.377-.593 1.377-1.317v-4.994h2.458c2.022 0 3.61-.424 4.702-1.297a4.147 4.147 0 0 0 1.24-1.634z" fill="#BF512D" mask="url(#b)"/><path d="M12.078 13.66a4.25 4.25 0 0 1-1.566 1.22c-.597.267-1.279.403-2.06.403-.782 0-1.465-.136-2.064-.403-.601-.267-1.12-.673-1.576-1.225-.535-.643-.913-1.448-1.14-2.398L3.46 9.875A9.605 9.605 0 0 1 3.446 8.5l.162-1.383c.213-1.081.615-1.987 1.204-2.7l-.003.005h.003a4.234 4.234 0 0 1 1.576-1.225c.6-.267 1.282-.403 2.064-.403.781 0 1.463.136 2.06.403a4.237 4.237 0 0 1 1.566 1.22c.903 1.103 1.372 2.652 1.372 4.625 0 1.97-.469 3.514-1.372 4.617zM14.567 2.54C13.04.905 10.966.073 8.452.078 5.927.073 3.848.905 2.32 2.54 1.195 3.741.484 5.258.19 7.052v.005L.055 8.47v.009c-.01.18-.02.363-.02.564 0 .298.013.586.03.866v.01l.186 1.413v.004c.323 1.658 1.006 3.076 2.069 4.21C3.848 17.172 5.927 18.004 8.452 18c2.514.005 4.59-.827 6.115-2.463 1.516-1.624 2.279-3.82 2.279-6.494 0-2.677-.76-4.879-2.28-6.502z" fill="#D2642C" mask="url(#b)"/></g><path fill="#D2642C" d="M21.736 47.043H10.672l1.041-1.991h11.063l-1.04 1.991M19.663 51.026H10l1.096-1.991h9.663l-1.096 1.991"/></g></svg>
